!!!OTL: Graserin und Ritter.
!!!ARE: Europa, Mitteleuropa, Deutschland
!!!SCT: A0088
!!!TXL: @@NDS
!!!YEM: Copyright 1995, estate of Helmut Schaffrath.
**kern	**text
*M4/2	*
*met(c|)	*
*k[]	*
*e:phr	*
!LO:TX:a:t=phryg.	!
{2b	Jch
=1	=1
2cc	weiß
2cc	ein
2b	ſtol-
2ee	-tʒe
=2	=2
2dd	gra-
2dd	-ſe-
1cc	-rin
=3	=3
2r}	.
{2b	[ſie
2cc	graſt
2dd	mir
=4	=4
2ee	in
(4dd	der
4cc)	.
(2b/	wie-
2a/)	.
=5	=5
1g	-ſen,
2r}	.
{2g	da
=6	=6
2cc	kam
(4b/	der-
4a/)	.
2g	-ſel-
2cc	-big
=7	=7
1g	rit-
2e}	-ter
{2g	und
=8	=8
2cc	des
(4b/	die
4a/)	.
2g	wie-
2f	-ſe
=9	=9
(1e	war
2g)	.
2cc	und
=10	=10
2b	des
2a	die
2.g	wie-
4f	-ſe
=11	=11
!LO:TX:a:t=P:1e in the score:problem	!
!LO:N:vis=1	!
1.e}	war.]
==	==
!!!GTL: Balladen und Romanzen (erzählende Volkslieder)
!!!AGN: Romanze, Ballade, Lied
!! Melodie in Bicinia II, 83. Von Boehme rhythmisch vereinfacht.
!!!ONB: ESAC (Essen Associative Code) Database: ALTDEU
!!!AMT: simple quadruple
!!!AIN: vox
!!!EED: Helmut Schaffrath
!!!EEV: 1.0
!!!AMD: Phrygian
!!!URL-scan: https://rosdok.uni-rostock.de/mcrviewer/recordIdentifier/rosdok_ppn738218359/iview2/phys_0251.iview2?x=-425.8853427895981&y=829.3144208145095&scale=0.4823261117445838&rotation=0&layout=singlePageLayout
!!!ENC: Anna Maria Matuszewska
!!!EEV: 2024/22/02
*-	*-
